X:35
T: Erre, erre borzos tyúk
O: Józseffalva (Radaucz), 1932
Q: "Guisto" 1/4=138
L:1/4
K:C
c/A/ c/A/ | F/G/ A |
c/A/ c/A/ | G/G/ F |
F/G/ G/G/ | c/c/ G |
E/C/ A/G/ | F/E/ D |

